static/images/logos/gallabox.svg

<svg width="176" height="38" viewBox="0 0 176 38" fill="none" xmlns="http://www.w3.org/2000/svg">
<path d="M51.1073 27.8124C49.6222 27.8124 48.3176 27.4099 47.1933 26.6048C46.0688 25.7997 45.1885 24.7262 44.5521 23.3844C43.9156 22.0202 43.5974 20.5331 43.5974 18.9229C43.5974 17.2232 43.9262 15.6913 44.5839 14.3271C45.2414 12.9406 46.1537 11.8448 47.3205 11.0397C48.4872 10.2346 49.8345 9.83203 51.3619 9.83203C52.6558 9.83203 53.7909 10.1451 54.7668 10.7713C55.7425 11.3751 56.5488 12.1914 57.1853 13.2201V10.1339H60.9084V26.8732C60.9084 28.6175 60.5052 30.1046 59.6992 31.3347C58.9142 32.587 57.8217 33.5376 56.4215 34.1861C55.0214 34.857 53.4303 35.1924 51.6483 35.1924C49.8237 35.1924 48.2857 34.8681 47.0341 34.2196C45.8036 33.5934 44.743 32.699 43.852 31.536L46.175 29.1543C46.8114 29.9818 47.6069 30.6303 48.5616 31.0999C49.5373 31.5695 50.5664 31.8044 51.6483 31.8044C52.5393 31.8044 53.3559 31.6255 54.0986 31.2676C54.8623 30.9322 55.4774 30.3954 55.9442 29.6574C56.4108 28.9419 56.6443 28.0137 56.6443 26.8732V24.6592C56.0926 25.6655 55.3078 26.4482 54.2895 27.0073C53.2923 27.5441 52.2316 27.8124 51.1073 27.8124ZM52.5393 24.2231C53.4727 24.2231 54.3106 23.9323 55.0532 23.3509C55.8169 22.7695 56.3471 22.0761 56.6443 21.2711V17.0779C56.2624 16.0491 55.6578 15.2217 54.8305 14.5955C54.0242 13.9693 53.1757 13.6562 52.2847 13.6562C51.4148 13.6562 50.6511 13.9134 49.9936 14.4278C49.3571 14.9421 48.8585 15.613 48.4979 16.4405C48.1372 17.2456 47.957 18.1178 47.957 19.057C47.957 20.0187 48.1584 20.8909 48.5616 21.6736C48.9645 22.4563 49.5055 23.0825 50.1845 23.5522C50.8846 23.9994 51.6694 24.2231 52.5393 24.2231Z" fill="#494949"/>
<path d="M63.6064 22.5122C63.6064 21.3717 63.9034 20.3765 64.4974 19.5267C65.1126 18.6545 65.9612 17.9836 67.0432 17.514C68.1251 17.0443 69.3662 16.8095 70.7663 16.8095C71.4664 16.8095 72.177 16.8766 72.8984 17.0108C73.6195 17.1226 74.2454 17.2903 74.7758 17.514V16.5747C74.7758 15.4565 74.4576 14.5955 73.8212 13.9917C73.2058 13.3879 72.283 13.0859 71.0527 13.0859C70.1404 13.0859 69.2707 13.2537 68.4433 13.5891C67.616 13.9246 66.746 14.4166 65.834 15.0651L64.4656 12.1131C65.5686 11.3528 66.6931 10.7825 67.8387 10.4023C69.0054 10.0221 70.2253 9.83203 71.4982 9.83203C73.8741 9.83203 75.7197 10.4582 77.0352 11.7106C78.3717 12.9629 79.0399 14.752 79.0399 17.0779V22.68C79.0399 23.172 79.1141 23.5186 79.2627 23.7199C79.411 23.8987 79.6764 24.0107 80.0582 24.0553V27.7118C79.6764 27.8013 79.3263 27.8571 79.0081 27.8795C78.711 27.9242 78.4564 27.9466 78.2444 27.9466C77.3957 27.9466 76.7488 27.7453 76.3033 27.3428C75.8578 26.9402 75.5925 26.4482 75.5077 25.8668L75.4123 24.9611C74.6696 25.9674 73.7575 26.739 72.6756 27.2757C71.6147 27.79 70.5223 28.0472 69.398 28.0472C68.2735 28.0472 67.2765 27.8124 66.4067 27.3428C65.5368 26.8507 64.8475 26.1911 64.3383 25.3636C63.8503 24.5139 63.6064 23.5633 63.6064 22.5122ZM73.9803 23.418C74.5105 22.8812 74.7758 22.3669 74.7758 21.8749V20.097C73.6726 19.6273 72.5589 19.3925 71.4346 19.3925C70.3101 19.3925 69.398 19.6497 68.6979 20.1641C67.9978 20.6561 67.6478 21.3158 67.6478 22.1432C67.6478 22.8141 67.9024 23.418 68.4115 23.9547C68.9207 24.4914 69.6526 24.7598 70.6072 24.7598C71.2436 24.7598 71.8588 24.6367 72.4529 24.3908C73.068 24.1449 73.5771 23.8205 73.9803 23.418Z" fill="#494949"/>
<path d="M82.9924 3.22388H87.2565V22.0765C87.2565 22.904 87.3838 23.4518 87.6384 23.7202C87.893 23.9886 88.243 24.1227 88.6885 24.1227C89.028 24.1227 89.378 24.0781 89.7386 23.9886C90.0992 23.899 90.4174 23.7873 90.6933 23.6531L91.2661 27.0748C90.6933 27.3656 90.025 27.5891 89.2613 27.7457C88.4976 27.9023 87.808 27.9805 87.1929 27.9805C85.8564 27.9805 84.8168 27.6115 84.0744 26.8735C83.353 26.113 82.9924 25.0396 82.9924 23.6531V3.22388Z" fill="#494949"/>
<path d="M93.0923 3.22388H97.3564V22.0765C97.3564 22.904 97.4837 23.4518 97.7382 23.7202C97.9928 23.9886 98.3428 24.1227 98.7883 24.1227C99.1278 24.1227 99.4779 24.0781 99.8385 23.9886C100.199 23.899 100.517 23.7873 100.793 23.6531L101.366 27.0748C100.793 27.3656 100.125 27.5891 99.3611 27.7457C98.5974 27.9023 97.9079 27.9805 97.2927 27.9805C95.9562 27.9805 94.9166 27.6115 94.1742 26.8735C93.4529 26.113 93.0923 25.0396 93.0923 23.6531V3.22388Z" fill="#494949"/>
<path d="M102.078 22.5122C102.078 21.3717 102.375 20.3765 102.969 19.5267C103.584 18.6545 104.433 17.9836 105.515 17.514C106.597 17.0443 107.838 16.8095 109.238 16.8095C109.938 16.8095 110.649 16.8766 111.37 17.0108C112.091 17.1226 112.717 17.2903 113.248 17.514V16.5747C113.248 15.4565 112.929 14.5955 112.293 13.9917C111.678 13.3879 110.755 13.0859 109.524 13.0859C108.612 13.0859 107.742 13.2537 106.915 13.5891C106.088 13.9246 105.218 14.4166 104.306 15.0651L102.937 12.1131C104.041 11.3528 105.165 10.7825 106.31 10.4023C107.477 10.0221 108.697 9.83203 109.97 9.83203C112.346 9.83203 114.192 10.4582 115.507 11.7106C116.843 12.9629 117.512 14.752 117.512 17.0779V22.68C117.512 23.172 117.586 23.5186 117.734 23.7199C117.883 23.8987 118.148 24.0107 118.53 24.0553V27.7118C118.148 27.8013 117.798 27.8571 117.48 27.8795C117.183 27.9242 116.928 27.9466 116.716 27.9466C115.867 27.9466 115.22 27.7453 114.775 27.3428C114.329 26.9402 114.064 26.4482 113.979 25.8668L113.884 24.9611C113.142 25.9674 112.229 26.739 111.147 27.2757C110.087 27.79 108.994 28.0472 107.87 28.0472C106.745 28.0472 105.748 27.8124 104.878 27.3428C104.009 26.8507 103.319 26.1911 102.81 25.3636C102.322 24.5139 102.078 23.5633 102.078 22.5122ZM112.452 23.418C112.982 22.8812 113.248 22.3669 113.248 21.8749V20.097C112.144 19.6273 111.031 19.3925 109.906 19.3925C108.782 19.3925 107.87 19.6497 107.17 20.1641C106.47 20.6561 106.119 21.3158 106.119 22.1432C106.119 22.8141 106.374 23.418 106.883 23.9547C107.392 24.4914 108.124 24.7598 109.079 24.7598C109.715 24.7598 110.33 24.6367 110.925 24.3908C111.54 24.1449 112.049 23.8205 112.452 23.418Z" fill="#494949"/>
<path d="M130.98 28.0476C129.707 28.0476 128.572 27.7457 127.575 27.1418C126.578 26.538 125.793 25.7105 125.22 24.6595V27.7121H121.497V3.22388H125.761V13.2204C126.355 12.1694 127.13 11.3419 128.084 10.7381C129.06 10.1343 130.195 9.83235 131.489 9.83235C132.932 9.83235 134.194 10.2573 135.276 11.1071C136.379 11.9345 137.238 13.0415 137.853 14.4281C138.469 15.8146 138.776 17.3354 138.776 18.9903C138.776 20.6899 138.437 22.2218 137.758 23.586C137.079 24.9503 136.146 26.0348 134.958 26.8399C133.791 27.645 132.465 28.0476 130.98 28.0476ZM129.803 24.2234C130.715 24.2234 131.51 23.9886 132.189 23.5189C132.889 23.0493 133.43 22.423 133.812 21.6404C134.215 20.8353 134.417 19.9631 134.417 19.0238C134.417 18.0622 134.226 17.1788 133.844 16.3737C133.483 15.5463 132.974 14.8865 132.316 14.3945C131.659 13.9025 130.906 13.6565 130.057 13.6565C129.124 13.6565 128.265 13.992 127.48 14.6629C126.716 15.3114 126.143 16.1165 125.761 17.0782V21.2714C126.037 22.1436 126.578 22.8591 127.384 23.4183C128.19 23.955 128.996 24.2234 129.803 24.2234Z" fill="#494949"/>
<path d="M149.365 28.0472C147.541 28.0472 145.971 27.6336 144.656 26.8061C143.362 25.9563 142.365 24.838 141.665 23.4515C140.965 22.065 140.615 20.5666 140.615 18.9564C140.615 17.3239 140.965 15.8143 141.665 14.4278C142.386 13.0412 143.394 11.9342 144.688 11.1068C146.003 10.2569 147.562 9.83203 149.365 9.83203C151.169 9.83203 152.717 10.2569 154.011 11.1068C155.327 11.9342 156.334 13.0412 157.035 14.4278C157.735 15.8143 158.085 17.3239 158.085 18.9564C158.085 20.5666 157.735 22.065 157.035 23.4515C156.334 24.838 155.327 25.9563 154.011 26.8061C152.717 27.6336 151.169 28.0472 149.365 28.0472ZM145.006 18.9564C145.006 19.9851 145.197 20.9021 145.579 21.7071C145.961 22.4898 146.48 23.1049 147.138 23.5521C147.796 23.9994 148.538 24.2231 149.365 24.2231C150.172 24.2231 150.904 23.9994 151.561 23.5521C152.219 23.0825 152.739 22.4563 153.12 21.6736C153.524 20.8685 153.725 19.9516 153.725 18.9229C153.725 17.9165 153.524 17.0219 153.12 16.2392C152.739 15.4341 152.219 14.8079 151.561 14.3607C150.904 13.891 150.172 13.6562 149.365 13.6562C148.538 13.6562 147.796 13.891 147.138 14.3607C146.48 14.8079 145.961 15.4341 145.579 16.2392C145.197 17.0219 145.006 17.9277 145.006 18.9564Z" fill="#494949"/>
<path d="M162.923 10.1343L166.423 15.6357L166.678 16.2396L166.996 15.6357L170.464 10.1343H174.951L169.16 18.8897L175.047 27.7121H170.56L166.964 22.2442L166.678 21.6739L166.423 22.2442L162.859 27.7121H158.372L164.259 18.9903L158.468 10.1343H162.923Z" fill="#494949"/>
<path d="M29.3821 7.99062L18.1835 1.10713C17.475 0.673821 16.6722 0.445801 15.8552 0.445801C15.0381 0.445801 14.2354 0.673821 13.5269 1.10713L2.32827 7.99062C1.62125 8.42692 1.03414 9.05309 0.625574 9.80656C0.217012 10.5601 0.00130521 11.4145 0 12.2845V26.0496C0.00147979 26.9196 0.217261 27.7739 0.625805 28.5275C1.03435 29.2809 1.62137 29.9071 2.32827 30.3434L13.5269 37.2288C14.2353 37.6623 15.0381 37.8905 15.8552 37.8905C16.6722 37.8905 17.475 37.6623 18.1835 37.2288L29.3821 30.3473C30.0887 29.9107 30.6755 29.2845 31.0837 28.5309C31.4921 27.7775 31.7076 26.9231 31.7086 26.0532V12.2845C31.7076 11.4146 31.4923 10.5602 31.0841 9.80674C30.6757 9.05324 30.0889 8.42701 29.3821 7.99062ZM29.3665 26.0496C29.3659 26.4818 29.2587 26.9062 29.0558 27.2805C28.8529 27.6549 28.5613 27.966 28.2102 28.1826L17.0254 35.0569V20.9794C17.0241 20.2078 16.8306 19.4504 16.4645 18.7843C16.0985 18.1183 15.5731 17.5676 14.9419 17.1883L3.38737 10.2235L3.50022 10.1496L14.6989 3.26792C15.0506 3.05237 15.4493 2.93892 15.8552 2.93892C16.261 2.93892 16.6598 3.05237 17.0115 3.26792L28.2102 10.1496C28.5613 10.3668 28.8529 10.6782 29.0558 11.0528C29.2587 11.4274 29.3659 11.8521 29.3665 12.2845V26.0496Z" fill="#3364FA"/>
</svg>

<svg xmlns="http://www.w3.org/2000/svg" width="176" height="38" fill="none" viewBox="0 0 176 38"><path fill="#494949" d="M51.107 27.812q-2.228 0-3.914-1.207-1.687-1.208-2.64-3.22-.956-2.047-.956-4.462 0-2.55.987-4.596.986-2.08 2.736-3.287 1.75-1.208 4.042-1.208 1.941 0 3.405.94 1.463.905 2.418 2.448v-3.086h3.723v16.74q0 2.616-1.209 4.46-1.177 1.88-3.277 2.852-2.1 1.006-4.774 1.006-2.736 0-4.614-.972-1.845-.94-3.182-2.684l2.323-2.382a6.7 6.7 0 0 0 2.387 1.946 7 7 0 0 0 3.086.704q1.337 0 2.45-.536 1.147-.504 1.846-1.61.7-1.074.7-2.785V24.66a5.83 5.83 0 0 1-2.355 2.348 6.6 6.6 0 0 1-3.182.805m1.432-3.589q1.401 0 2.514-.872 1.146-.872 1.591-2.08v-4.193q-.573-1.543-1.813-2.482-1.21-.94-2.546-.94-1.305 0-2.291.772-.956.771-1.496 2.012a6.3 6.3 0 0 0-.541 2.617q0 1.443.605 2.617a5.04 5.04 0 0 0 1.623 1.878q1.05.67 2.354.671M63.606 22.512q0-1.71.891-2.985.923-1.309 2.546-2.013t3.723-.704q1.05 0 2.132.2 1.082.169 1.878.504v-.94q0-1.677-.955-2.582-.923-.906-2.768-.906a6.9 6.9 0 0 0-2.61.503q-1.24.504-2.609 1.476l-1.368-2.952q1.654-1.14 3.373-1.71 1.749-.57 3.66-.571 3.562 0 5.536 1.879 2.005 1.878 2.005 5.367v5.602q0 .738.223 1.04.222.268.795.335v3.657q-.573.134-1.05.168a5 5 0 0 1-.764.067q-1.272 0-1.94-.604a2.4 2.4 0 0 1-.796-1.476l-.096-.906a7.5 7.5 0 0 1-2.736 2.315 7.4 7.4 0 0 1-3.278.771q-1.686 0-2.991-.704a5.65 5.65 0 0 1-2.069-1.98q-.732-1.275-.732-2.85m10.374.906q.796-.805.796-1.543v-1.778q-1.655-.705-3.341-.705t-2.737.772q-1.05.738-1.05 1.98 0 1.006.764 1.81.763.806 2.195.806.955 0 1.846-.37.922-.368 1.527-.972M82.992 3.224h4.264v18.853q0 1.24.382 1.643.383.403 1.05.403.51 0 1.05-.134.542-.135.955-.336l.573 3.422q-.86.436-2.005.67t-2.068.235q-2.005 0-3.119-1.107-1.082-1.14-1.082-3.22zM93.092 3.224h4.264v18.853q0 1.24.382 1.643t1.05.403q.51 0 1.05-.134.541-.135.955-.336l.573 3.422q-.86.436-2.005.67t-2.068.235q-2.005 0-3.119-1.107-1.082-1.14-1.082-3.22zM102.078 22.512q0-1.71.891-2.985.923-1.309 2.546-2.013t3.723-.704q1.05 0 2.132.2 1.082.169 1.878.504v-.94q0-1.677-.955-2.582-.922-.906-2.769-.906-1.368 0-2.609.503-1.24.504-2.609 1.476l-1.369-2.952q1.656-1.14 3.373-1.71a11.7 11.7 0 0 1 3.66-.571q3.564 0 5.537 1.879 2.004 1.878 2.005 5.367v5.602q0 .738.222 1.04.223.268.796.335v3.657q-.573.134-1.05.168a5 5 0 0 1-.764.067q-1.273 0-1.941-.604a2.4 2.4 0 0 1-.796-1.476l-.095-.906a7.5 7.5 0 0 1-2.737 2.315 7.4 7.4 0 0 1-3.277.771q-1.687 0-2.992-.704a5.65 5.65 0 0 1-2.068-1.98q-.732-1.275-.732-2.85m10.374.906q.796-.805.796-1.543v-1.778q-1.655-.705-3.342-.705-1.686 0-2.736.772-1.05.738-1.051 1.98 0 1.006.764 1.81.763.806 2.196.806.954 0 1.846-.37.922-.368 1.527-.972M130.98 28.048q-1.91 0-3.405-.906a6.46 6.46 0 0 1-2.355-2.482v3.052h-3.723V3.224h4.264v9.996q.891-1.575 2.323-2.482 1.464-.906 3.405-.906 2.164 0 3.787 1.275 1.654 1.242 2.577 3.321t.923 4.562q0 2.55-1.018 4.596t-2.8 3.254q-1.75 1.208-3.978 1.208m-1.177-3.825q1.368 0 2.386-.704a4.7 4.7 0 0 0 1.623-1.879 5.76 5.76 0 0 0 .605-2.616q0-1.443-.573-2.65-.541-1.241-1.528-1.98a3.67 3.67 0 0 0-2.259-.738q-1.4 0-2.577 1.007a6.04 6.04 0 0 0-1.719 2.415v4.193q.414 1.309 1.623 2.147 1.209.805 2.419.805M149.365 28.047q-2.736 0-4.709-1.24a8.56 8.56 0 0 1-2.991-3.355q-1.05-2.08-1.05-4.496 0-2.449 1.05-4.528a8.55 8.55 0 0 1 3.023-3.321q1.972-1.275 4.677-1.275 2.706 0 4.646 1.275a8.25 8.25 0 0 1 3.024 3.32q1.05 2.08 1.05 4.53 0 2.415-1.05 4.494a8.5 8.5 0 0 1-3.024 3.355q-1.94 1.241-4.646 1.241m-4.359-9.09q0 1.542.573 2.75.572 1.175 1.559 1.845a3.87 3.87 0 0 0 2.227.671q1.21 0 2.196-.67.987-.705 1.559-1.88.605-1.206.605-2.75 0-1.51-.605-2.684-.572-1.208-1.559-1.878a3.7 3.7 0 0 0-2.196-.705 3.74 3.74 0 0 0-2.227.705q-.987.67-1.559 1.878-.573 1.175-.573 2.717M162.923 10.134l3.5 5.502.255.604.318-.604 3.468-5.502h4.487l-5.791 8.756 5.887 8.822h-4.487l-3.596-5.468-.286-.57-.255.57-3.564 5.468h-4.487l5.887-8.722-5.791-8.856z"/><path fill="#3364fa" d="M29.382 7.99 18.183 1.108a4.46 4.46 0 0 0-2.328-.661c-.817 0-1.62.228-2.328.661L2.328 7.991A4.83 4.83 0 0 0 .626 9.807 5.2 5.2 0 0 0 0 12.284V26.05c.001.87.217 1.724.626 2.477.408.754.995 1.38 1.702 1.816l11.199 6.886a4.46 4.46 0 0 0 2.328.662c.817 0 1.62-.229 2.328-.662l11.2-6.882a4.83 4.83 0 0 0 1.7-1.816 5.2 5.2 0 0 0 .626-2.478V12.284a5.2 5.2 0 0 0-.625-2.477 4.83 4.83 0 0 0-1.702-1.816m-.016 18.06c0 .432-.107.856-.31 1.23a2.4 2.4 0 0 1-.846.903l-11.185 6.874V20.979a4.6 4.6 0 0 0-.56-2.195 4.23 4.23 0 0 0-1.523-1.596L3.387 10.224l.113-.074L14.7 3.268a2.2 2.2 0 0 1 1.156-.33c.406 0 .805.114 1.157.33L28.21 10.15c.351.217.643.528.846.903.203.374.31.8.31 1.231z"/></svg>
